X:1
T:104 - O Bom Porvir
T:Letra: Robert Lowry (1826-1899)
T:Trad.: Stuart Edmund McNair (1867-1959)
T:Música: Robert Lowry (1826-1899)
M:2/4
L:1/8
Q:1/4=100
K:G
V:1
D | "G"DG G>A | B2 BB | Bd G>A | B3B | "D7"BA AA | "G"AG GG | "D"GF FG | A2 zD | "G"DG G>A | B2 BB | Bd G>A | B3B | "D"dc BA | "G"BG "C"GE | "G/D"DG "D"F>A | "G"G2 z2 || "G"DB B>A | G2 z2 | "C"EG G>E | "G"D2 zD | DG G>A | B2 BB | dB BG | "D"A2 z2 | "G"DB B>A | G2 z2 | "C"EG G>E | "G"D2 zD | DG G>A | Bd "C"Hee | "G/D"dB "D7"A>B | "G"G3 |]
w: 1.~O di-aa-le-gre che-ga, Ra-dian-teem san-ta luz, Quan-do,a-fi-nal, ven-ci-doo mal, Vi-er rei-nar Je-sus. O Sal-va-dor do-mí-nio Te-rá de mar a mar, E sob a su-a pro-te-ção Os seus vem con-gre-gar.     Bre-veo di-a vem; bre-veo di-a vem.    O di-aa-le-gre che-ga,    Bem per-toaau-ro-raes-tá;                Bre-veo di-a vem; bre-veo di-a vem    Em quees-sa paz, que Cris-to traz,    Seu po-vo go-za-rá.
w: 2.~Ja-mais a voz doen-ga-no No mun-do seou-vi-rá; Ja-mais ohor-ror do ten-ta-dor O po-voa-fli-gi-rá; Mas to-dos a ver-da-de So-men-te fa-la-rão, Eao gran-de Deus os san-tos seus Com go-zoa-do-ra-rão.
w: 3.~Por es-se di-aa-le-gre Sus-pi-raa cri-a-ção, Em dor, a-qui, o-cul-taem si, Sob du-raes-cra-vi-dão; Mas das tris-te-zas, do-res, En-tão se li-vra-rá, Ao re-ful-gir, no bom por-vir, A luz que bên-ção dá.
W: 
W:
W: 1. O dia alegre chega,
W: Radiante em santa luz,
W: Quando, afinal, vencido o mal,
W: Vier reinar Jesus.
W: O Salvador domínio
W: Terá de mar a mar,
W: E sob a sua proteção
W: Os seus vem congregar.
W: 
W:    (Estribilho)
W:    Breve o dia vem; breve o dia vem.
W:    O dia alegre chega,
W:    Bem perto a aurora está;            
W:    Breve o dia vem; breve o dia vem
W:    Em que essa paz, que Cristo traz,
W:    Seu povo gozará.
W: 
W:
W:
W: 2. Jamais a voz do engano
W: No mundo se ouvirá;
W: Jamais o horror do tentador
W: O povo afligirá;
W: Mas todos a verdade
W: Somente falarão,
W: E ao grande Deus os santos seus
W: Com gozo adorarão.
W: 
W: 3. Por esse dia alegre
W: Suspira a criação,
W: Em dor, aqui, oculta em si,
W: Sob dura escravidão;
W: Mas das tristezas, dores,
W: Então se livrará,
W: Ao refulgir, no bom porvir,
W: A luz que bênção dá.
W:         
W:





